X:1
T:Lamentation over Boston
T:Lamentation over Boston
T:Soprano
T:William Billings
C:William Billings
L:1/8
M:3/2
K:C
V:1 treble 
V:1
 A8 A4 | c4 B4 A4 | e2 e2 e4 e4 | A2 e2 d2 c2 B4 |[M:2/2] A8 | z4 c4 | B8 | z4 A4 | G8 | z4 c4 | %10
w: By the|Ri- vers of|Wa- ter- town we|sat * down * and|wept,|we|wept,|we|wept|we|
 B8 | z4 c4 | B2 A2 A2 e2 | e2 d2 c2 cd | e4 e4 | z4 c4 | B2 B2 A2 c2 | B2 A2 ^G4 | A4 A4 | z8 | %20
w: wept|when|we re- mem- ber'd|thee * * O *|Bos- ton,|when|we re- mem- ber'd|thee, * O|Bos- ton.||
 z8 | c4 B2 A2 | e4 e2 e2 | e4 ed c2 | B4 B2 B2 | c2 dc B2 ed | c2 d2 e2 f2 | g4 g2 gf | e4 ed c2 | %29
w: |Lord God of|Heav- en, pre-|serve them * de-|fend them, de-|liv- er * and re- *|store * them un-|to us, pre- *|serve them, * de-|
 B4 B2 B2 | c2 d2 e2 d2 | c4 B2 B2 | A4 A4 | G4 A4- | A8 | z8 | z8 | z8 | z8 | z8 | z8 | z8 | z8 | %43
w: fend them, de-|liv- er and re-|store them un-|to us|a- gain.||||||||||
 z8 | z8 | A4 c2 c2 | c8 | A4 ^G4 |[M:3/2] A8 z4 |[M:2/2] c4 c2 c2 | c8 | c4 d4 | e6 e2 | %53
w: ||For- bid it,|Lord|God, for-|bid,|For- bid it,|Lord|God, for-|bid that|
 e4 e2 d2 | c2 e4 d2 | c4 B2 A2 | B6 B2 | c2 d2 ed cB | A2 A2 ^G4 | A8 | z4 A4 A2 c2 B2 B2 | %61
w: those who have|suck- ed Bos-|ton- i- an|Breasts should|thirst * for * A- *|mer- i- can|Blood.|A voice was heard in|
 c2 d2 d2 e2 | A2 c2 B2 cA | B2 G2 G4 | c3 d B3 d | c2 BA G4 | B/c/B/A/ B2 A4 | z8 | c3 e d2 c2 | %69
w: Rox- bur- y which|ec- cho'd thro' the *|Con- ti- nent,|weep- * * *|* * * ing,|weep- * * * * ing,||weep- * * *|
 B4 B4 | z4 c>edc | B4 e4 | e4 z4 | B4 c2 d2 | e4 e4 | c3 d B3 c | A4 e2 e2 | e4 A2 c2 | %78
w: * ing|weep- * * *|ing, weep-|ing,|weep- ing for|Bos- ton|weep- * * *|* ing for|Bos- ton be-|
 B2 A2 ^G2 G2 | A4 A4 | z4 A4 | A2 ^G2 Ac BA | B6 B2 | c2 d2 e2 dc | B6 B2 | c2 B2 A2 B2 | %86
w: cause * of their|Dan- ger.|Is|Bos- ton my * dear *|Town, is|it my na- tive *|Place? for|since * their Ca-|
 c3 d e2 dc | B2 B2 B2 cd | e4 e2 d2 | e6 z2 | z4 z2 Bc | d2 B2 G2 cc | B2 c2 e2 d2 | %93
w: lam- i- ty I do|ear- nest- ly re- *|mem- ber it|still!|I do|ear- nest- ly, I do|ear- nest- ly re-|
 c2 B2 A2 ^G2 | A8 |: z4 e4 | c2 c2 c2 cc B2 B2 B2 B2 | A c2 B A2 dc | B2 ed c2 A2 | B>cBA G4 | %100
w: mem- * ber it|still.|If|I for- get thee, if I for- get thee,|yea, * if I do *|not re- * mem- ber|thee, * * * *|
 z4 c4 B2 B2 A2 c2 | B2 A2 e2 ed | c2 B2 A2 B2 | c8 | z4 c4 | B2 B2 A2 c2 | B2 A2 G4- | G4 A4 | %108
w: Then let my num- bers|cease to flow, Then *|be my Muse un-|kind,|Then|let my Tongue for-|get to move|* and|
 c2 A2 BA ^G2 | A8 | z4 A4 | c2 B2 A2 B2 | c2 e2 ef gf | ec dB cA B2 | c2 B6 | z4 c4 | %116
w: ev- er be * con-|fin'd;|Let|hor- rid Jar- gon|split the Air * and *|rive * my * nerves * a-|sun- der.|Let|
 B2 B2 B2 B2 | c2 B2 A2 B2 | c2 d2 e2 d2 | c2 e6 | z4 c4 | e2 d2 c2 B2 | c2 e2 ed c2 | %123
w: hate- ful dis- cord|greet my ear as|ter- ri- ble as|Thun- der.|Let|har- mo- ny be|ban- ish'd hence * and|
 B2 A2 f2 d2 | e8 | z4 c4 | B2 c2 dc BA | B2 B2 c2 df | e2 dc BA ^G2 | A8 :| %130
w: Con- so- nance de-|part;|Let|dis- so- nance * e- *|rect her throne and *|reign with- * in * my|Heart.|

